blockchains/ethereum/assets/0x7D1AfA7B718fb893dB30A3aBc0Cfc608AaCfeBB0/logo.svg

<svg width="250" height="250" viewBox="0 0 250 250" fill="none" xmlns="http://www.w3.org/2000/svg">
<g clip-path="url(#clip0_9_792)">
<path d="M125 250C194.036 250 250 194.036 250 125C250 55.9644 194.036 0 125 0C55.9644 0 0 55.9644 0 125C0 194.036 55.9644 250 125 250Z" fill="#8247E5"/>
<path d="M168.622 95.4692C165.633 93.7612 161.79 93.7612 158.374 95.4692L134.462 109.56L118.236 118.527L94.7511 132.618C91.7621 134.326 87.9191 134.326 84.5031 132.618L66.1422 121.516C63.1532 119.808 61.0182 116.392 61.0182 112.549V91.1992C61.0182 87.7832 62.7262 84.3672 66.1422 82.2322L84.5031 71.5572C87.4921 69.8492 91.3351 69.8492 94.7511 71.5572L113.112 82.6592C116.101 84.3672 118.236 87.7832 118.236 91.6262V105.717L134.462 96.3232V81.8052C134.462 78.3892 132.754 74.9732 129.338 72.8382L95.1781 52.7693C92.1891 51.0613 88.3461 51.0613 84.9301 52.7693L49.9162 73.2652C46.5002 74.9732 44.7922 78.3892 44.7922 81.8052V121.943C44.7922 125.359 46.5002 128.775 49.9162 130.91L84.5031 150.979C87.4921 152.687 91.3351 152.687 94.7511 150.979L118.236 137.315L134.462 127.921L157.947 114.257C160.936 112.549 164.779 112.549 168.195 114.257L186.556 124.932C189.545 126.64 191.68 130.056 191.68 133.899V155.249C191.68 158.665 189.972 162.081 186.556 164.216L168.622 174.891C165.633 176.599 161.79 176.599 158.374 174.891L140.013 164.216C137.024 162.508 134.889 159.092 134.889 155.249V141.585L118.663 150.979V165.07C118.663 168.486 120.371 171.902 123.787 174.037L158.374 194.106C161.363 195.814 165.206 195.814 168.622 194.106L203.209 174.037C206.198 172.329 208.333 168.913 208.333 165.07V124.505C208.333 121.089 206.625 117.673 203.209 115.538L168.622 95.4692Z" fill="white"/>
</g>
<defs>
<clipPath id="clip0_9_792">
<rect width="250" height="250" fill="white"/>
</clipPath>
</defs>
</svg>

<svg fill="none" height="250" viewBox="0 0 250 250" width="250" xmlns="http://www.w3.org/2000/svg" xmlns:xlink="http://www.w3.org/1999/xlink"><clipPath id="a"><path d="m0 0h250v250h-250z"/></clipPath><g clip-path="url(#a)"><path d="m125 250c69.036 0 125-55.964 125-125 0-69.0356-55.964-125-125-125-69.0356 0-125 55.9644-125 125 0 69.036 55.9644 125 125 125z" fill="#8247e5"/><path d="m168.622 95.4692c-2.989-1.708-6.832-1.708-10.248 0l-23.912 14.0908-16.226 8.967-23.4849 14.091c-2.989 1.708-6.832 1.708-10.248 0l-18.3609-11.102c-2.989-1.708-5.124-5.124-5.124-8.967v-21.3498c0-3.416 1.708-6.832 5.124-8.967l18.3609-10.675c2.989-1.708 6.832-1.708 10.248 0l18.3609 11.102c2.989 1.708 5.124 5.124 5.124 8.967v14.0908l16.226-9.3938v-14.518c0-3.416-1.708-6.832-5.124-8.967l-34.1599-20.0689c-2.989-1.708-6.832-1.708-10.248 0l-35.0139 20.4959c-3.416 1.708-5.124 5.124-5.124 8.54v40.1378c0 3.416 1.708 6.832 5.124 8.967l34.5869 20.069c2.989 1.708 6.832 1.708 10.248 0l23.4849-13.664 16.226-9.394 23.485-13.664c2.989-1.708 6.832-1.708 10.248 0l18.361 10.675c2.989 1.708 5.124 5.124 5.124 8.967v21.35c0 3.416-1.708 6.832-5.124 8.967l-17.934 10.675c-2.989 1.708-6.832 1.708-10.248 0l-18.361-10.675c-2.989-1.708-5.124-5.124-5.124-8.967v-13.664l-16.226 9.394v14.091c0 3.416 1.708 6.832 5.124 8.967l34.587 20.069c2.989 1.708 6.832 1.708 10.248 0l34.587-20.069c2.989-1.708 5.124-5.124 5.124-8.967v-40.565c0-3.416-1.708-6.832-5.124-8.967z" fill="#fff"/></g></svg>
